X:1
T:"General Lavine" - excentric
T:"General Lavine" - excentric
T:(General Lavine - Eccentric) No 6 from Préludes Book 2 
T:Claude Debussy (1862-1918) 
C:Claude Debussy (1862-1918)
%%score { ( 1 5 ) | ( 2 4 ) | ( 3 6 ) }
L:1/8
Q:1/4=112
M:2/4
K:F
V:1 treble nm="Grand Piano" snm="Pno."
V:5 treble 
V:2 treble 
V:4 treble 
V:3 bass 
V:6 bass 
V:1
"^Dans le style et le Mouvement d'un Cake-Walk" x | z2 z!p! .[_E_GB] | %2
 .[=G=Bd].[_B_df].[G=B=d].[_E_G_B] | z2 z .[_E_GB] | .[=G=Bd].[_B_df].[G=B=d].[_E_G_B] | %5
 z2"_dim." .[_DF_A] z | z2 .[B,_DF] z | z2 .[_DF_A]!p!.[B,=DF] | x4 | x4 | !breath!x4 | %11
[K:bass]"^Spirituel at discret" z!p!!>(!{/^C} !tenuto![C,D,A,D]3-!>)! | [C,D,A,D]4 | %13
 z!p!!>(!{/^C} !tenuto![C,D,A,D]3-!>)! | [C,D,A,D] z z2 | z .[A,CD] z .[A,CD] | %16
 z .[A,CD] z .[A,CD] | [B,CD]4[K:treble] | x4 |[K:bass] z!p!!>(!{/^C} !tenuto![C,D,A,D]3-!>)! | %20
 [C,D,A,D]4 | z!p!!>(!{/^C} !tenuto![C,D,A,D]3-!>)! | [C,D,A,D] z z2 | %23
[K:treble] z .[FA] z .[FG=B] | z .[EG] z .[=B,^D^F] |[K:bass] z .[C_E] z .[=A,CD] | %26
 z .[C_E] z .[CD] | z .[C_E] z .[=A,CD] | z .[C_E] z .[CD] | z4 | z4 | %31
[K:treble] z2 !tenuto![=B^f=b]2 | z2 (!tenuto![=B^f=b]2- | [Bfb][dad'] [cgc']2-) | %34
 [cgc']2- [cgc']/ z/ z |[K:bass] z!p!!>(!{/^C} !tenuto![C,D,A,D]3-!>)! | [C,D,A,D]4 | %37
 z!p!!>(!{/^C} !tenuto![C,D,A,D]3-!>)! | [C,D,A,D] z z2 |[K:treble] (G>F) (=D>F) | (G>F) (D>B) | %41
 (G>F) (D>F) | (G>F) (D>B) |!f! x x/4!f!!<(! .c/4.c/4.f/4!<)!!ff! F2- | F2 z2 | %45
 z2 !fermata!z!p![Q:1/4=80]"^Trainé\n" ([_E_GB] || %46
[K:Db]!>(! [=G=B=d][_B_df][G=B=d]!>)!!pp![E_G_B]) | %47
[Q:1/4=112]"^Mouvt."!p! ([=E=G].[_E_GA]/).[EGA]/ x/ .[GA]/x/[GA]/- | [GA] z !tenuto![ee']2 | %49
 ([G=A].[F_AB]/).[FAB]/ x/ .[AB]/x/[AB]/- | [AB] z !tenuto![ff']2 | z x x2 | x4 | x4 | x4 | x4 | %56
 x4 | z2 z!ff![Q:1/4=80]"^Trainé"!<(! ([GB] | [=G=B=d][_B_df][G=B=d]!<)!!fff![E_G_B]) | %59
!p![Q:1/4=112]"^Mouvt." ([=E=G].[_E_GA]/).[EGA]/ x/ .[GA]/x/[GA]/- | [GA] z !tenuto![ee']2 | %61
 ([G=A].[F_AB]/).[FAB]/ x/ .[AB]/x/[AB]/- | [AB] z !tenuto![ff']2 | z x x2 | x4 | %65
 z ([_f_f']- [ff']/[ee']/[dd']) | z ([=f=f']- [ff']/[ee']/[dd']) | %67
 z[Q:1/4=80]"^Très retenu"!ff!!<(! [ff']- ([ff']/[ee']/!<)!!fff![dd']) | z2!f! (!tenuto!F2- | %69
!>(! (3F2 !tenuto!=E2 !tenuto!=D2)!>)! || %70
[K:F][K:bass][Q:1/4=112]"^Mouvt." z!p!!>(!{/^C} !tenuto![C,D,A,D]3-!>)! | [C,D,A,D]4 | %72
 z!p!!>(!{/^C} !tenuto![C,D,A,D]3-!>)! | [C,D,A,D] z z2 | z .[A,CD] z .[A,CD] | %75
 z .[A,CD] z .[A,CD] | [B,CD]4[K:treble] | x4 |[K:bass] z!p!!>(!{/^C} !tenuto![C,D,A,D]3-!>)! | %79
 [C,D,A,D]4 | z!p!!>(!{/^C} !tenuto![C,D,A,D]3-!>)! | [C,D,A,D] z z2 | %82
[K:treble] z .[FA] z .[FG=B] | z .[EG] z .[=B,^D^F] |[K:bass] z .[C_E] z .[=A,CD] | %85
 z .[C_E] z .[CD] | z .[C_E] z .[=A,CD] | z .[C_E] z .[CD] | z4 | z4 | %90
[K:treble] z2 !tenuto![=B^f=b]2 | z2 (!tenuto![=B^f=b]2- | [Bfb][dad'] [cgc']2-) | %93
 [cgc']2- [cgc']/ z/ z |[K:bass][Q:1/4=80]"^Très retenu" z!p!!>(!{/=D} !tenuto![_D,_E,B,_E]3-!>)! | %95
 [D,E,B,E]4 | x4 | z4 | z!p!"_cresc."{/=D} !tenuto![_D,_E,B,_E]3 |[Q:1/4=112]"^Animez" x4 | %100
[K:treble] z2 z [_GB] |!f!!<(! [=G=B=d][_B_df][G=B=d]!<)!!ff![_E_G_B] | %102
!f!!<(! [_Ac_e][=Bd^f][Ace]!<)!!ff![=EG=B] | z x/4[I:staff +1] .c/4.c/4.f/4 .F[I:staff -1] x | %104
 z x/4[I:staff +1] .G/4.G/4.c/4 .C[I:staff -1] x | %105
 z x/4[I:staff +1] .c/4.c/4.f/4 .F[I:staff -1] x | %106
 z x/4[I:staff +1] .G/4.G/4.c/4 .C[I:staff -1] x | z2 x2 | x4 | x4 |] %110
V:2
!f! x/4 .G/4.G/4.c/4 | !^!!tenuto!C4 | x3 x/4 .G/4.G/4.c/4 | !^!!tenuto!C4 | x3 x/4 .G/4.G/4.c/4 | %5
 x3 x/4 .G/4.G/4.c/4 | x3 x/4 .G/4.G/4.c/4 |!pp! !tenuto!C2- C z | %8
[K:bass]!>(! .[G,=B,D].[_E,_G,_B,].[C,=E,=G,].[_A,,_C,_E,]!>)! |!pp! z4 | z4 | z2!pp! .C,,.D,, | %12
 (F,,/G,,/).A,,/.G,,/!>(! .F,,!>)!!ppp!.D,, | z2!pp! .C,,.D,, | %14
 (F,,/G,,/).A,,/ .C,/!<(! .D,!<)!!p!.F, |!pp! (!tenuto!G,>F,) (!tenuto!D,>F,) | %16
 (!tenuto!G,>F,)!<(! (!tenuto!D,>A,)!<)! | (_A,4 | !arpeggio![G,B,CD]) z!>(! x2!>)! | %19
!pp! z2!pp! .C,,.D,, | (F,,/G,,/).A,,/.G,,/!>(! .F,,!>)!!ppp!.D,, | z2!pp! .C,,.D,, | %22
!<(! (F,,/G,,/).A,,/ .C,/ .D,!<)!!p!.F, |!pp!!<(! .G,/.A,/(C/D/) ED-!<)! | %24
!p!!>(! D(C/=B,/)!>)!!pp! A,2- |!p!!<(! A,(_A,/G,/)!<)!!mp! ^F,2- | %26
 F,!>(!(_A,/G,/) .^F,/.F,/(=A,/_A,/)!>)! |!p! z!<(! (_A,/G,/)!<)!!mp! ^F,2- | %28
 F,!>(!(_A,/G,/) .^F,/.F,/(=A,/_A,/)!>)! | %29
"^molto staccato""_molto cresc." .G,/.^F,/._A,/.G,/ .F,/.=F,/.G,/.^F,/ | %30
 .=F,/.E,/.^F,/.=F,/ .E,/._E,/.F,/.=E,/ |[K:treble]!f!!<(! z2!<)!!ff! !tenuto![^D^F]2 | %32
!f!!<(! z2!<)!!ff! (!tenuto![^D^F]2- |!p!!>(! [DF][=FA]!>)!!pp! [EG]2-) | [EG]2- [EG]/ z/ z | %35
[K:bass]!pp! z2!pp! .C,,.D,, | (F,,/G,,/).A,,/.G,,/!>(! .F,,!>)!!ppp!.D,, | z2!pp! .C,,.D,, | %38
!<(! (F,,/G,,/).A,,/ .C,/ .D,.F,!<)! |!p! z .[G,_D] z .[_G,C] | z .[=G,_D] z .[_G,C] | %41
 z .[A,_E] z .[_A,C] |!<(! z .[G,^C] z .[^F,=C]!<)! | z2[K:treble] z!f!!<(! (!>![B,_DG]- | %44
 [B,DG]!<)!!ff!.[=B,=D^G])[I:staff +1] .F,/[I:staff -1]x/[I:staff +1].C,/[I:staff -1] x/ | %45
!ff![I:staff +1] .F,,[I:staff -1] x x2 ||[K:Db][K:bass] x4 | %47
 x2 .[G,A,]/x/[I:staff -1].[GA]/[I:staff +1] x/ | .[G,A,] z !tenuto!E2 | %49
 x2 .[A,B,]/x/[I:staff -1].[AB]/[I:staff +1] x/ | .[A,B,] z !tenuto!F2 | %51
 x!f!!<(![I:staff -1] !>![_ceg]/.[ceg]/[I:staff +1][K:treble]!>![A=ce]/.[Ace]/[I:staff -1]!>![_ceg]/.[ceg]/!<)! | %52
!ff![I:staff +1] .[dfa]!>(![I:staff -1].[_ceg][I:staff +1].[=G=B=d][I:staff -1].[_B_df]!>)! | %53
!p![I:staff +1] .[F=Ac]!>(![I:staff -1].[E_GB][I:staff +1].[=B,=DF][I:staff -1].[_D_F_A]!>)! | %54
[I:staff +1][K:bass]!pp! .[=G,=B,=D][I:staff -1].[_B,_DF][I:staff +1] z .=D, | %55
 .[=G,=B,=D][I:staff -1].[_B,_DF][I:staff +1] z!pp! .=D, | z .=D, z .D, | z .=D, z (F | =E_E=D_D) | %59
 x2 .[G,A,]/x/[I:staff -1].[GA]/[I:staff +1] x/ | .[G,A,] z !tenuto!E2 | %61
 x2 .[A,B,]/x/[I:staff -1].[AB]/[I:staff +1] x/ | .[A,B,] z !tenuto!F2 | %63
 x!f![I:staff -1] !>![_ceg]/.[ceg]/[I:staff +1][K:treble]!>![A=ce]/.[Ace]/!<(![I:staff -1]!>![_ceg]/.[ceg]/ | %64
[I:staff +1] .[dfa][I:staff -1].[_ceg][I:staff +1].[=G=B=d]!<)!!ff![I:staff -1].[_B_df] | %65
!f!!<(![I:staff +1] [_G=A]4!<)! |!f!!<(! [_G=A]4!<)! | z F- (F/E/D) | x4 | z4 || %70
[K:F][K:bass] z2!pp! .C,,.D,, | (F,,/G,,/).A,,/.G,,/!>(! .F,,!>)!!ppp!.D,, | z2!pp! .C,,.D,, | %73
 (F,,/G,,/).A,,/ .C,/!<(! .D,!<)!!p!.F, |!pp! (!tenuto!G,>F,) (!tenuto!D,>F,) | %75
 (!tenuto!G,>F,)!<(! (!tenuto!D,>A,)!<)! | (_A,4 | !arpeggio![G,B,CD]) z!>(! x2!>)! | %78
!pp! z2!pp! .C,,.D,, | (F,,/G,,/).A,,/.G,,/!>(! .F,,!>)!!ppp!.D,, | z2!pp! .C,,.D,, | %81
!<(! (F,,/G,,/).A,,/ .C,/ .D,!<)!!p!.F, |!pp!!<(! .G,/.A,/(C/D/) ED-!<)! | %83
!p!!>(! D(C/=B,/)!>)!!pp! A,2- |!p!!<(! A,(_A,/G,/)!<)!!mp! ^F,2- | %85
 F,!>(!(_A,/G,/) .^F,/.F,/(=A,/_A,/)!>)! |!p! z!<(! (_A,/G,/)!<)!!mp! ^F,2- | %87
 F,!>(!(_A,/G,/) .^F,/.F,/(=A,/_A,/)!>)! |"_molto cresc." .G,/.^F,/._A,/.G,/ .F,/.=F,/.G,/.^F,/ | %89
 .=F,/.E,/.^F,/.=F,/ .E,/._E,/.F,/.=E,/ |[K:treble]!f!!<(! z2!<)!!ff! !tenuto![^D^F]2 | %91
!f!!<(! z2!<)!!ff! (!tenuto![^D^F]2- |!p!!>(! [DF][=FA]!>)!!pp! [EG]2-) | [EG]2- [EG]/ z/ z | %94
[K:bass]!pp! z2!pp! ._D,,._E,, |!<(! (_G,,/_A,,/)!<)!!p!!>(!.B,,/.A,,/!>)!!pp! .G,,._E,,- | %96
 E,, z z2 |!p! !tenuto![^F,,=A,,]4 | z2 ._D,,._E,, | (_G,,/_A,,/).B,,/ ._D,/ ._E,._G, | %100
 _A,B,[K:treble] _DF | E_ED_D | FE_ED |!ff! z2!fff! x z |!ff! z2!fff! x z |!ff! z2!fff! x z | %106
!ff! z2!fff! x z | %107
 x x/4!ff! .C/4.C/4.F/4!<(![I:staff +1] .F,/[I:staff -1]x/[I:staff +1].C,/[I:staff -1] x/!<)! | %108
!fff![I:staff +1] !>!F,,[I:staff -1] x3 |[K:bass] .F, z z2 |] %110
V:3
 x | x4 | x4 | x4 | x4 | x4 | x4 | x4 | x3 x/4[I:staff -1] .G,,/4.G,,/4.C,/4 | %9
!8vb(![I:staff +1] C,,, z z2 |"^sec" !^!!tenuto!C,,,!8vb)! z z2 |!pp! !tenuto!F,,,2 z2 | x4 | %13
!pp! !tenuto!F,,,2 z2 | x4 |!8vb(! .[F,,,F,,]/ z/ z .[C,,,C,,]/ z/ z | %16
 .[F,,,F,,]/ z/ z .[C,,,C,,]/!8vb)! z/ z | z4 | %18
 x x/4[I:staff -1] .G,/4.G,/4.C/4 .C,/[I:staff +1].G,,/[I:staff -1].C,/[I:staff +1].C,,/ | %19
!pp! !tenuto!F,,,2 z2 | x4 |!pp! !tenuto!F,,,2 z2 | x4 | .[D,,,D,,] z .[G,,,G,,] z | %24
 .[A,,,A,,] z .[=B,,,=B,,] z | .[_A,,,_A,,] z .[D,,D,] z | .[_A,,,_A,,] z .[D,,D,] z | %27
 .[_A,,,_A,,] z .[D,,D,] z | .[_A,,,_A,,] z .[D,,D,] z | z4 | z4 | %31
!ped! x2 !tenuto![A,=B,]2!ped-up! |!ped! x2 !tenuto![A,=B,]2-!ped-up! | %33
!ped! ([A,B,]!ped-up!!ped! [_B,C]3-)!ped-up!!ped! | %34
 [B,C]2- [B,C]/!ped-up!!p!!>(! ._B,,/._A,,/._G,,/!>)! |!pp! !tenuto!F,,,2 z2 | x4 | %37
!pp! !tenuto!F,,,2 z2 | x4 | .[_E,,,_E,,] z .[_A,,,_A,,] z | .[_E,,,_E,,] z .[_A,,,_A,,] z | %41
 .[F,,,F,,] z .[B,,,B,,] z | .[A,,,A,,] z .[D,,D,] z | z4 | %44
 x x/4[I:staff -1] .C/4.C/4.F/4[I:staff +1] x/ .F,,/x/.C,,/ | .F,,, z z2!ped!!ped-up! || %46
[K:Db]!ped! x!ped-up!!ped! x!ped-up!!ped! x!ped-up!!ped! x!ped-up! | A,,,4-!ped! | %48
 A,,,!ped-up! z!ped! z2!ped-up! | A,,,4-!ped! | A,,,!ped-up! z!ped! z2!ped-up! | x4 | x4 | x4 | %54
 z2 !tenuto!A,,,2 | z2 !tenuto!A,,,2 | !tenuto!A,,,2 !tenuto!A,,,2 | %57
 !tenuto!A,,,2!ped! !^!A,,,2-!ped-up! |!ped! x4!ped-up!!ped!!ped-up!!ped!!ped-up!!ped!!ped-up! | %59
 A,,,4-!ped! | A,,,!ped-up! z!ped! z2!ped-up! | A,,,4-!ped! | A,,,!ped-up! z!ped! z2!ped-up! | x4 | %64
 x4 |!ped! x4!ped-up! |!ped! x4!ped-up! |!ff!!ped! z [=G,B,D]3!ped-up! | x4 | z4 || %70
[K:F]!pp! !tenuto!F,,,2 z2 | x4 |!pp! !tenuto!F,,,2 z2 | x4 | %74
!8vb(! .[F,,,F,,]/ z/ z .[C,,,C,,]/ z/ z | .[F,,,F,,]/ z/ z .[C,,,C,,]/!8vb)! z/ z | z4 | %77
 x x/4[I:staff -1] .G,/4.G,/4.C/4 .C,/[I:staff +1].G,,/[I:staff -1].C,/[I:staff +1].C,,/ | %78
!pp! !tenuto!F,,,2 z2 | x4 |!pp! !tenuto!F,,,2 z2 | x4 | .[D,,,D,,] z .[G,,,G,,] z | %83
 .[A,,,A,,] z .[=B,,,=B,,] z | .[_A,,,_A,,] z .[D,,D,] z | .[_A,,,_A,,] z .[D,,D,] z | %86
 .[_A,,,_A,,] z .[D,,D,] z | .[_A,,,_A,,] z .[D,,D,] z | z4 | z4 | %90
!ped! x2 !tenuto![A,=B,]2!ped-up! |!ped! x2 !tenuto![A,=B,]2-!ped-up! | %92
!ped! ([A,B,]!ped-up!!ped! [_B,C]3-)!ped-up!!ped! | %93
 [B,C]2- [B,C]/!ped-up! z/!p!!>(! .B,,/._A,,/!>)! |!pp!"_una\ncorda\n" !tenuto!_G,,,4 | x4 | x4 | %97
 !tenuto!D,,,4 |!pp! !tenuto!_G,,,4 | x2"_tre corde" x2 | x4 | x4 | x4 | x G,3 | x B,3 | x G,3 | %106
 x B,3 | z2 x/ .F,,/x/.C,,/ | !>!F,,, z z2 | .[F,,,F,,] z z2 |] %110
V:4
 x | x4 | x4 | x4 | x4 | !tenuto!C4 | !tenuto!C4 | x4 |[K:bass] x4 | x4 | x4 | x4 | x4 | x4 | x4 | %15
 x4 | x4 | x!f!!<(! x/4[I:staff -1] .G/4.G/4.c/4!<)!!ff! !>!C2 | x4 | x4 | x4 | x4 | x4 | x4 | x4 | %25
 x4 | x4 | x4 | x4 | x4 | x4 |[I:staff +1][K:treble] x4 | x4 | x4 | x4 |[K:bass] x4 | x4 | x4 | %38
 x4 | x4 | x4 | x4 | x4 | x x/4[K:treble] x3/4 x2 | x4 | x4 ||[K:Db][K:bass] x4 | x4 | x4 | x4 | %50
 x4 | x2[K:treble] x2 | x4 | x4 |[K:bass] x4 | x4 | x4 | x4 | x4 | x4 | x4 | x4 | x4 | %63
 x2[K:treble] x2 | x4 | z2 (_F/E/!ff!D) | z2 (=F/E/!ff!D) | x4 | x4 | x4 ||[K:F][K:bass] x4 | x4 | %72
 x4 | x4 | x4 | x4 | x!f!!<(! x/4[I:staff -1] .G/4.G/4.c/4!<)!!ff! !>!C2 | x4 | x4 | x4 | x4 | x4 | %82
 x4 | x4 | x4 | x4 | x4 | x4 | x4 | x4 |[I:staff +1][K:treble] x4 | x4 | x4 | x4 |[K:bass] x4 | %95
 x4 | x4 | x4 | x4 | x4 | x2[K:treble] x2 | x4 | x4 | z!<(! [_DF]3!<)! | z!<(! [DE]3!<)! | %105
 z!<(! [_DF]3!<)! | z!<(! [DE]3!<)! | x4 | x4 |[K:bass] x4 |] %110
V:5
 x | x4 | x4 | x4 | x4 | x4 | x4 | x4 | x4 | x4 | x4 |[K:bass] x4 | x4 | x4 | x4 | x4 | x4 | %17
 x[K:treble] x x2 | x4 |[K:bass] x4 | x4 | x4 | x4 |[K:treble] x4 | x4 |[K:bass] x4 | x4 | x4 | %28
 x4 | x4 | x4 |[K:treble] x4 | x4 | x4 | x4 |[K:bass] x4 | x4 | x4 | x4 |[K:treble] x4 | x4 | x4 | %42
 x4 | z2 x2 | x4 | x4 ||[K:Db] x4 | !tenuto!C4 | x4 | !tenuto!=D4 | x4 | x4 | x4 | x4 | x4 | x4 | %56
 x4 | x4 | x4 | !tenuto!C4 | x4 | !tenuto!=D4 | x4 | x4 | x4 | [g=a]4 | [g=a]4 | x [bd']3 | x4 | %69
 x4 ||[K:F][K:bass] x4 | x4 | x4 | x4 | x4 | x4 | x[K:treble] x x2 | x4 |[K:bass] x4 | x4 | x4 | %81
 x4 |[K:treble] x4 | x4 |[K:bass] x4 | x4 | x4 | x4 | x4 | x4 |[K:treble] x4 | x4 | x4 | x4 | %94
[K:bass] x4 | x4 | x4 | x4 | x4 | x4 |[K:treble] x4 | x4 | x4 | x [Afa]3 | x [Aea]3 | x [Afa]3 | %106
 x [Aea]3 | x4 | x4 | x4 |] %110
V:6
 x | x4 | x4 | x4 | x4 | x4 | x4 | x4 | x4 |!8vb(! x4 | x!8vb)! x3 | x4 | x4 | x4 | x4 |!8vb(! x4 | %16
 x5/2!8vb)! x3/2 | x4 | x4 | x4 | x4 | x4 | x4 | x4 | x4 | x4 | x4 | x4 | x4 | x4 | x4 | C,4 | %32
 C,4 | C,4- | C,2- C,/ x3/2 | x4 | x4 | x4 | x4 | x4 | x4 | x4 | x4 | x4 | x4 | x3 x ||[K:Db] x4 | %47
 x x3 | x4 | x x3 | x4 | x4 | x4 | x4 | x4 | x4 | x4 | x4 | x x x x | x x3 | x4 | x x3 | x4 | x4 | %64
 x4 | x4 | x4 | [E,,,E,,]4 | x4 | x4 ||[K:F] x4 | x4 | x4 | x4 |!8vb(! x4 | x5/2!8vb)! x3/2 | x4 | %77
 x4 | x4 | x4 | x4 | x4 | x4 | x4 | x4 | x4 | x4 | x4 | x4 | x4 | C,4 | C,4 | C,4- | %93
 C,2- C,/ x3/2 | x4 | x4 | x4 | x4 | x4 | x4 | x4 | x4 | x4 | [B,,,B,,]3 z | [C,,C,]3 z | %105
 [B,,,B,,]3 z | [C,,C,]3 z | x4 | x4 | x4 |] %110

